svgs/protocol_hyperspace_diver.svg

<svg width="192" height="192" viewBox="0 0 192 192" fill="none" xmlns="http://www.w3.org/2000/svg">
<path d="M22 117.786L42.5255 63.3214H84.6569L76.0146 87.2857H53.3285M124.628 88.375L138.672 51.3393H170L148.394 107.982H115.985M119.226 35L92.8905 107.982M73.854 157L92.8905 107.982M92.8905 107.982H53.3285L46.8467 123.232M109.504 135.214H158.117" stroke="#000" stroke-width="12" stroke-linecap="round" stroke-linejoin="round"/>
</svg>

<svg xmlns="http://www.w3.org/2000/svg" width="192" height="192" fill="none"><path stroke="#000" stroke-linecap="round" stroke-linejoin="round" stroke-width="12" d="m22 117.786 20.526-54.465h42.13l-8.641 23.965H53.328m71.3 1.089 14.044-37.036H170l-21.606 56.643h-32.409M119.226 35l-26.335 72.982M73.854 157l19.037-49.018m0 0H53.328l-6.481 15.25m62.657 11.982h48.613"/></svg>
